!!!COM: Bach, Johann Sebastian
!!!OTL: Vom Himmel hoch, da komm' ich her
!!!ONM: No. 46
!!!OCL: Erk
!!!YOE: Riemenschneider, Albert
!!!OPR: 371 Harmonized Chorales and 69 Chorale Melodies with Figured Bass
!!!OPT: Bach Chorale Harmonizations
**kern	**kern	**kern	**kern
! bass	! tenor	! alto	! soprano
*M4/4	*M4/4	*M4/4	*M4/4
*D:	*D:	*D:	*D:
4D	4f#	4a	4dd
=1	=1	=1	=1
4.A	4e	8a	4cc#
.	.	8g#	.
.	4d	4f#	4b
8G#	.	.	.
8A	4c#	4e	4cc#
8Gn	.	.	.
4F#	8d	8f#	4a
.	8c#	8e	.
=2	=2	=2	=2
8G	8B	4d	4b
8F#	8A	.	.
4E	4G	4e	4cc#
4D;	4A;	4f#;	4dd;
8D	4A	8f#	4dd
8E	.	8g	.
=3	=3	=3	=3
4F#	4d	8a	4dd
.	.	8g	.
8F#	4d	4f#	4a
8G	.	.	.
4A	4c#	4e	4a
8A	8cn	4d	8f#
8G	8B	.	8g
=4	=4	=4	=4
8F#	4A	4d	4a
8E	.	.	.
8D	4A	4e	4g
8C#	.	.	.
4D;	4A;	4d;	4f#;
4D	4A	8d	4f#
.	.	8e	.
=5	=5	=5	=5
4D#	4A	4f#	4b
8E	4G#	4e	4b
8Dn	.	.	.
8C#	8A	8e	8a
8BB	8d	8g#	8b
4AA	8c#	4a	4cc#
.	8B	.	.
=6	=6	=6	=6
8F#	8A	4.a	8dd
8E	8c#	.	8cc#
8D	8f#	.	4b
8E	8e	8g#	.
4AA;	4c#;	4e;	4a;
8B	8d	8f#	4dd
8E	[8B	8e	.
=7	=7	=7	=7
4A	8B]	8e	4cc#
.	8A	[8f#	.
8D	8A	8f#]	4b
[8Gn	8Gn	8e	.
8G]	4A	8c#	4a
8F#	.	8d	.
8G	8G	8B	8b
8A	8F#	8c#	8a
=8	=8	=8	=8
8B	4D	[4d	8g
8G	.	.	8f#
8A	8A	8d]	4e
8AA	8G	8c#	.
4D;	4F#;	4A;	4d;
==	==	==	==
*-	*-	*-	*-
!!!CDT: 1685/3//-1750/7/28
!!!OCY: Deutschland
!!!AGN: chorale
!!!AST: Baroque
!!!AIN: vox
!!!YOY: 1941
!!!PPP: New York; London
!!!PPR: G. Schirmer
!!!ENC: David Huron
!!!EED: David Huron
!!!YEN: United States of America
!!!YER: 1992
!!!YEC: Copyright 1992 David Huron
!!!YEM: Rights to all derivative electronic formats reserved.
!!!YER: March 20, 1996
!!!AMT: simple quadruple
!!!EEV: 1.1
